svg/u1f5a8.svg

<svg viewBox="0 0 128 128" xmlns="http://www.w3.org/2000/svg" xmlns:xlink="http://www.w3.org/1999/xlink">
  <path d="m103.41 76.25h-78.88c-2.52 0-4.58-2.06-4.58-4.58v-50.98c0-2.52 2.06-4.58 4.58-4.58h78.89c2.52 0 4.58 2.06 4.58 4.58v50.99c-0.01 2.51-2.07 4.57-4.59 4.57z" fill="#757575"/>
  <g opacity=".2">
    <path d="m103.41 19.11c0.85 0 1.58 0.72 1.58 1.58v50.99c0 0.85-0.72 1.58-1.58 1.58h-78.88c-0.85 0-1.58-0.72-1.58-1.58v-50.99c0-0.85 0.72-1.58 1.58-1.58h78.88m0-3h-78.88c-2.52 0-4.58 2.06-4.58 4.58v50.99c0 2.52 2.06 4.58 4.58 4.58h78.89c2.52 0 4.58-2.06 4.58-4.58v-50.99c-0.01-2.52-2.07-4.58-4.59-4.58z" fill="#424242"/>
  </g>
  <path d="m94.33 48.19h-60.67c-1.97 0-3.57-1.6-3.57-3.57v-37.02c0-1.97 1.6-3.57 3.57-3.57h60.67c1.97 0 3.57 1.6 3.57 3.57v37.02c-0.01 1.97-1.6 3.57-3.57 3.57z" fill="#F5F5F5"/>
  <g opacity=".2">
    <path d="m94.33 7.03c0.31 0 0.57 0.25 0.57 0.57v37.02c0 0.31-0.25 0.57-0.57 0.57h-60.67c-0.31 0-0.57-0.25-0.57-0.57v-37.02c0-0.31 0.25-0.57 0.57-0.57h60.67m0-3h-60.67c-1.97 0-3.57 1.6-3.57 3.57v37.02c0 1.97 1.6 3.57 3.57 3.57h60.67c1.97 0 3.57-1.6 3.57-3.57v-37.02c-0.01-1.97-1.6-3.57-3.57-3.57z" fill="#424242"/>
  </g>
  <linearGradient id="e" gradientUnits="userSpaceOnUse" x1="63.991" x2="63.991" y1="103.88" y2="43.733">
    <stop offset="0" stop-color="#BDBDBD"/>
    <stop offset=".2076" stop-color="#CACACA"/>
    <stop offset=".7045" stop-color="#E4E4E4"/>
    <stop offset="1" stop-color="#eee"/>
  </linearGradient>
  <path d="m114.88 103.88h-101.78c-4.89 0-8.89-4-8.89-8.89v-42.37c0-4.89 4-8.89 8.89-8.89h101.78c4.89 0 8.89 4 8.89 8.89v42.36c0 4.89-4 8.9-8.89 8.9z" fill="url(#e)"/>
  <path d="m19.99 43.73v7.51c0 2.52 2.2 4.49 4.72 4.49h78.54c2.52 0 4.74-1.98 4.74-4.49v-7.51h-88z" fill="#424242"/>
  <g opacity=".2">
    <path d="m114.88 46.73c3.25 0 5.89 2.64 5.89 5.89v42.36c0 3.25-2.64 5.89-5.89 5.89h-101.78c-3.25 0-5.89-2.64-5.89-5.89v-42.36c0-3.25 2.64-5.89 5.89-5.89h101.78m0-3h-101.78c-4.89 0-8.89 4-8.89 8.89v42.36c0 4.89 4 8.89 8.89 8.89h101.78c4.89 0 8.89-4 8.89-8.89v-42.36c0-4.89-4-8.89-8.89-8.89z" fill="#424242"/>
  </g>
  <circle cx="108.69" cy="69.44" fill="#757575" r="7.19"/>
  <path d="m103.41 115.96h-78.83c-2.52 0-4.58-2.06-4.58-4.58v-23.44h87.99v23.44c0 2.52-2.06 4.58-4.58 4.58z" fill="#424242"/>
  <g opacity=".2">
    <path d="m104.99 90.94v20.44c0 0.85-0.72 1.58-1.58 1.58h-78.83c-0.85 0-1.58-0.72-1.58-1.58v-20.44h81.99m3-3h-87.99v23.44c0 2.52 2.06 4.58 4.58 4.58h78.84c2.52 0 4.58-2.06 4.58-4.58v-23.44h-0.01z" fill="#424242"/>
  </g>
  <path d="M96,98.33v5.14c0,1.4-1.13,2.53-2.53,2.53H34.53c-1.4,0-2.53-1.13-2.53-2.53v-5.14 c0-1.28-1.04-2.33-2.33-2.33h-7.35C21.04,96,20,97.04,20,98.33v13.09c0,2.52,2.06,4.58,4.58,4.58h78.84 c2.52,0,4.58-2.06,4.58-4.58V98.33c0-1.28-1.04-2.33-2.33-2.33h-7.35C97.04,96,96,97.04,96,98.33z" fill="#757575"/>
  <g opacity=".2">
    <path d="m105.67 98c0.18 0 0.33 0.15 0.33 0.33v13.09c0 1.42-1.16 2.58-2.58 2.58h-78.84c-1.42 0-2.58-1.16-2.58-2.58v-13.09c0-0.18 0.15-0.33 0.33-0.33h7.35c0.18 0 0.33 0.15 0.33 0.33v5.14c0 2.5 2.03 4.53 4.53 4.53h58.94c2.5 0 4.53-2.03 4.53-4.53v-5.14c0-0.18 0.15-0.33 0.33-0.33h7.33m0-2h-7.35c-1.28 0-2.32 1.04-2.32 2.33v5.14c0 1.4-1.13 2.53-2.53 2.53h-58.94c-1.4 0-2.53-1.13-2.53-2.53v-5.14c0-1.28-1.04-2.33-2.33-2.33h-7.35c-1.28 0-2.32 1.04-2.32 2.33v13.09c0 2.52 2.06 4.58 4.58 4.58h78.84c2.52 0 4.58-2.06 4.58-4.58v-13.09c0-1.29-1.04-2.33-2.33-2.33z" fill="#424242"/>
  </g>
</svg>

<svg style="enable-background:new 0 0 128 128;" viewBox="0 0 128 128" xmlns="http://www.w3.org/2000/svg" xmlns:xlink="http://www.w3.org/1999/xlink">
  <path d="M103.4,76.2H24.5c-2.5,0-4.6-2.1-4.6-4.6v-51c0-2.5,2.1-4.6,4.6-4.6h78.9c2.5,0,4.6,2.1,4.6,4.6v51 C108,74.2,105.9,76.2,103.4,76.2z" style="fill:#757575;"/>
  <g style="opacity:0.2;">
    <path d="M103.4,19.1c0.8,0,1.6,0.7,1.6,1.6v51c0,0.8-0.7,1.6-1.6,1.6H24.5c-0.9,0-1.6-0.7-1.6-1.6v-51 c0-0.9,0.7-1.6,1.6-1.6L103.4,19.1 M103.4,16.1H24.5c-2.5,0-4.6,2.1-4.6,4.6v51c0,2.5,2.1,4.6,4.6,4.6h78.9c2.5,0,4.6-2.1,4.6-4.6 v-51C108,18.2,105.9,16.1,103.4,16.1z" style="fill:#424242;"/>
  </g>
  <path d="M94.3,48.2H33.7c-2,0-3.6-1.6-3.6-3.6v-37c0-2,1.6-3.6,3.6-3.6h60.7c2,0,3.6,1.6,3.6,3.6v37 C97.9,46.6,96.3,48.2,94.3,48.2z" style="fill:#F5F5F5;"/>
  <g style="opacity:0.2;">
    <path d="M94.3,7c0.3,0,0.6,0.2,0.6,0.6v37c0,0.3-0.2,0.6-0.6,0.6H33.7c-0.3,0-0.6-0.2-0.6-0.6v-37 c0-0.3,0.2-0.6,0.6-0.6L94.3,7 M94.3,4H33.7c-2,0-3.6,1.6-3.6,3.6v37c0,2,1.6,3.6,3.6,3.6h60.7c2,0,3.6-1.6,3.6-3.6v-37 C97.9,5.6,96.3,4,94.3,4z" style="fill:#424242;"/>
  </g>
  <linearGradient id="SVGID_1_" gradientTransform="matrix(1 0 0 1 0 -713.8898)" gradientUnits="userSpaceOnUse" x1="64" x2="64" y1="817.7898" y2="757.5898">
    <stop offset="0" style="stop-color:#BDBDBD"/>
    <stop offset="0.2076" style="stop-color:#CACACA"/>
    <stop offset="0.7045" style="stop-color:#E4E4E4"/>
    <stop offset="1" style="stop-color:#EEEEEE"/>
  </linearGradient>
  <path d="M114.9,103.9H13.1c-4.9,0-8.9-4-8.9-8.9V52.6c0-4.9,4-8.9,8.9-8.9h101.8c4.9,0,8.9,4,8.9,8.9 V95C123.8,99.9,119.8,103.9,114.9,103.9z" style="fill:url(#SVGID_1_);"/>
  <path d="M20,43.7v7.5c0,2.5,2.2,4.5,4.7,4.5h78.5c2.5,0,4.7-2,4.7-4.5v-7.5C108,43.7,20,43.7,20,43.7z" style="fill:#424242;"/>
  <g style="opacity:0.2;">
    <path d="M114.9,46.7c3.2,0,5.9,2.6,5.9,5.9V95c0,3.2-2.6,5.9-5.9,5.9H13.1c-3.2,0-5.9-2.6-5.9-5.9V52.6 c0-3.2,2.6-5.9,5.9-5.9L114.9,46.7 M114.9,43.7H13.1c-4.9,0-8.9,4-8.9,8.9V95c0,4.9,4,8.9,8.9,8.9h101.8c4.9,0,8.9-4,8.9-8.9V52.6 C123.8,47.7,119.8,43.7,114.9,43.7z" style="fill:#424242;"/>
  </g>
  <circle cx="108.7" cy="69.4" r="7.2" style="fill:#757575;"/>
  <path d="M103.4,116H24.6c-2.5,0-4.6-2.1-4.6-4.6V87.9h88v23.4C108,113.9,105.9,116,103.4,116z" style="fill:#424242;"/>
  <g style="opacity:0.2;">
    <path d="M105,90.9v20.4c0,0.8-0.7,1.6-1.6,1.6H24.6c-0.9,0-1.6-0.7-1.6-1.6V90.9H105 M108,87.9H20v23.4 c0,2.5,2.1,4.6,4.6,4.6h78.8c2.5,0,4.6-2.1,4.6-4.6V87.9L108,87.9z" style="fill:#424242;"/>
  </g>
  <path d="M96,98.3v5.1c0,1.4-1.1,2.5-2.5,2.5h-59c-1.4,0-2.5-1.1-2.5-2.5v-5.1c0-1.3-1-2.3-2.3-2.3h-7.4 C21,96,20,97,20,98.3v13.1c0,2.5,2.1,4.6,4.6,4.6h78.8c2.5,0,4.6-2.1,4.6-4.6V98.3c0-1.3-1-2.3-2.3-2.3h-7.3C97,96,96,97,96,98.3z" style="fill:#757575;"/>
  <g style="opacity:0.2;">
    <path d="M105.7,98c0.2,0,0.3,0.2,0.3,0.3v13.1c0,1.4-1.2,2.6-2.6,2.6H24.6c-1.4,0-2.6-1.2-2.6-2.6V98.3 c0-0.2,0.1-0.3,0.3-0.3h7.4c0.2,0,0.3,0.2,0.3,0.3v5.1c0,2.5,2,4.5,4.5,4.5h58.9c2.5,0,4.5-2,4.5-4.5v-5.1c0-0.2,0.2-0.3,0.3-0.3 H105.7 M105.7,96h-7.3C97,96,96,97,96,98.3v5.1c0,1.4-1.1,2.5-2.5,2.5h-59c-1.4,0-2.5-1.1-2.5-2.5v-5.1c0-1.3-1-2.3-2.3-2.3h-7.4 C21,96,20,97,20,98.3v13.1c0,2.5,2.1,4.6,4.6,4.6h78.8c2.5,0,4.6-2.1,4.6-4.6V98.3C108,97,107,96,105.7,96z" style="fill:#424242;"/>
  </g>
</svg>
